src/assets/images/series-icons/fatal-fury.svg

<svg xmlns="http://www.w3.org/2000/svg" height="180.40298" width="168.22388"><path d="M79.95201 0l16.36568 56.944926 71.90619-26.809254-62.12485 62.417908 22.45522 72.04701-60.2447-34.53917-51.407237 50.34156 22.573209-66.8747L0 90.89798l55.350224-21.01656z" opacity=".5"/></svg>

<?xml version="1.0" encoding="UTF-8" standalone="no"?>
<!-- Created with Inkscape (http://www.inkscape.org/) by Toomai Glittershine for SmashWiki -->

<svg
   xmlns:dc="http://purl.org/dc/elements/1.1/"
   xmlns:cc="http://creativecommons.org/ns#"
   xmlns:rdf="http://www.w3.org/1999/02/22-rdf-syntax-ns#"
   xmlns:svg="http://www.w3.org/2000/svg"
   xmlns="http://www.w3.org/2000/svg"
   xmlns:sodipodi="http://sodipodi.sourceforge.net/DTD/sodipodi-0.dtd"
   xmlns:inkscape="http://www.inkscape.org/namespaces/inkscape"
   id="svg2"
   version="1.1"
   height="180.40298"
   width="168.22388"
   viewBox="0 0 168.22388 180.40298"
   sodipodi:docname="FatalFurySymbol.svg"
   inkscape:version="0.92.3 (2405546, 2018-03-11)">
  <defs
     id="defs7" />
  <sodipodi:namedview
     pagecolor="#ffffff"
     bordercolor="#666666"
     borderopacity="1"
     objecttolerance="10"
     gridtolerance="10"
     guidetolerance="10"
     inkscape:pageopacity="0"
     inkscape:pageshadow="2"
     inkscape:window-width="1920"
     inkscape:window-height="1017"
     id="namedview5"
     showgrid="false"
     inkscape:zoom="0.921875"
     inkscape:cx="84.61194"
     inkscape:cy="89.70149"
     inkscape:window-x="-8"
     inkscape:window-y="-8"
     inkscape:window-maximized="1"
     inkscape:current-layer="svg2" />
  <metadata
     id="metadata7">
    <rdf:RDF>
      <cc:Work
         rdf:about="">
        <dc:format>image/svg+xml</dc:format>
        <dc:type
           rdf:resource="http://purl.org/dc/dcmitype/StillImage" />
        <dc:title />
      </cc:Work>
    </rdf:RDF>
  </metadata>
  <path
     id="mainsymbolpath"
     style="opacity:0.5;fill:#000000;fill-opacity:1;stroke:none"
     d="M 79.95201,0 96.31769,56.944926 168.22388,30.135672 106.09903,92.55358 128.55425,164.60059 68.30955,130.06142 16.902313,180.40298 39.475522,113.52828 0,90.89798 55.350224,69.88142 Z"
     inkscape:connector-curvature="0" />
</svg>
